!! 00010] TT[TB
!! Eigene Aufnahme
!!!OTL: Ang Nang                                 (Name)
!!!ARE: Neimeng
!! Ethnic Group: Menggu
!! MM, S. 717
!!!SCT: C0560
!!!YEM: Copyright 1995, estate of Helmut Schaffrath.
**kern
*ICvox
*Ivox
*M2/4
*k[]
*C:
{8a
8a
8a
8g
=1
8e
8e
8e
8A
=2
8a
8a
8a
8g
=3
4e
4r}
=4
{8a
8a
8a
8g
=5
8e
8c
8c
8A
=6
8d
8d
8c
8G
=7
4A
4r}
==
!!!AGN: NN
!! Saenger: Chao Lun Batou, der das Buch nur zum Nachschlagen
!!    benutzte und ansonsten auswendig sang. Da er aus dem Osten der
!!    Neimeng kommt, kennt er nicht so viele Lieder des Westens.
!!    Alle Lieder wurden mit erkaelteter, halber Stimme in meinem
!!    Zimmer gesungen. FOTO VORHANDEN (DIAS)  31.3.87
!!    Singt 2 Strophen. Leicht rhythmisiert.
!!!ONB: ESAC (Essen Associative Code) Database: CHINA
!!!AMT: simple duple
!!!AIN: vox
!!!EED: Helmut Schaffrath
!!!EEV: 1.0
*-
